Icons/Var.svg

<svg viewBox="0 0 16 16" xmlns="http://www.w3.org/2000/svg">
  <path d="m4 2.5h-2.5v11h2.5" fill="none" stroke="#9e9e9e"/>
  <path d="m12 2.5h2.5v11h-2.5" fill="none" stroke="#9e9e9e"/>
  <path d="m8.5 3-5.5 3v4l4.5 3 5.5-3v-5zm0 1 3.396484 1.6015625-4.396484 2.3984375-3.3515625-1.4882812z" fill="#9e9e9e"/>
</svg>

<?xml version="1.0" encoding="UTF-8" standalone="no"?>
<svg
   xmlns:dc="http://purl.org/dc/elements/1.1/"
   xmlns:cc="http://creativecommons.org/ns#"
   xmlns:rdf="http://www.w3.org/1999/02/22-rdf-syntax-ns#"
   xmlns:svg="http://www.w3.org/2000/svg"
   xmlns="http://www.w3.org/2000/svg"
   xmlns:sodipodi="http://sodipodi.sourceforge.net/DTD/sodipodi-0.dtd"
   xmlns:inkscape="http://www.inkscape.org/namespaces/inkscape"
   viewBox="0 0 16 16"
   version="1.1"
   id="svg10"
   sodipodi:docname="Var.svg"
   inkscape:version="0.92.4 (5da689c313, 2019-01-14)"
   inkscape:export-filename="C:\Users\Kalama\Documents\GitHub\CodeLab-bb\Icons\Var.32.png"
   inkscape:export-xdpi="192"
   inkscape:export-ydpi="192"><metadata
   id="metadata16">
  <rdf:RDF>
    <cc:Work
       rdf:about="">
      <dc:format>image/svg+xml</dc:format>
      <dc:type
         rdf:resource="http://purl.org/dc/dcmitype/StillImage" />
    </cc:Work>
  </rdf:RDF>
</metadata>
<defs
   id="defs14" />
<sodipodi:namedview
   pagecolor="#ffffff"
   bordercolor="#666666"
   borderopacity="1"
   objecttolerance="10"
   gridtolerance="10"
   guidetolerance="10"
   inkscape:pageopacity="0"
   inkscape:pageshadow="2"
   inkscape:window-width="944"
   inkscape:window-height="1002"
   id="namedview12"
   showgrid="false"
   showguides="false"
   inkscape:zoom="16"
   inkscape:cx="11.537457"
   inkscape:cy="-4.9834896"
   inkscape:window-x="0"
   inkscape:window-y="0"
   inkscape:window-maximized="0"
   inkscape:current-layer="svg10" />






     /&amp;gt;
 <path
   style="fill:none;stroke:#9e9e9e;stroke-width:1px;stroke-linecap:butt;stroke-linejoin:miter;stroke-opacity:1"
   d="M 4,2.5 H 1.5 v 11 H 4"
   id="path827"
   inkscape:connector-curvature="0"
   sodipodi:nodetypes="cccc" />
<path
   style="fill:none;stroke:#9e9e9e;stroke-width:1px;stroke-linecap:butt;stroke-linejoin:miter;stroke-opacity:1"
   d="m 12,2.5 h 2.5 v 11 H 12"
   id="path829"
   inkscape:connector-curvature="0"
   sodipodi:nodetypes="cccc" />
<path
   style="fill:#9e9e9e;fill-opacity:1;stroke:none;stroke-width:1px;stroke-linecap:butt;stroke-linejoin:miter;stroke-opacity:1"
   d="M 8.5,3 3,6 v 4 L 7.5,13 13,10 V 5 Z m 0,1 3.396484,1.6015625 L 7.5,8 4.1484375,6.5117188 Z"
   id="path833"
   inkscape:connector-curvature="0"
   sodipodi:nodetypes="cccccccccccc" />
</svg>
